src/assets/image/hand-white.svg

<svg width="34" height="37" viewBox="0 0 34 37" fill="none" xmlns="http://www.w3.org/2000/svg">
<g filter="url(#filter0_d)">
<path d="M23.7154 11.2937C22.6968 10.0103 20.9628 9.63845 19.542 10.3041C18.7516 9.49129 17.6514 9.13895 16.5848 9.28704V5.47165C16.5848 3.55737 15.0311 2 13.1213 2C11.2116 2 9.65782 3.55737 9.65782 5.47165V13.8206C8.61756 13.4367 7.39682 13.5567 6.41392 14.2803C4.88009 15.4097 4.5437 17.562 5.65367 19.1071L11.3856 27.0867C12.0347 27.9902 13.0854 28.5296 14.1962 28.5296H23.5118C25.1212 28.5296 26.5201 27.4156 26.885 25.8457L28.3182 19.6797C28.3781 19.4213 28.4084 19.157 28.4085 18.8919V14.5394C28.4085 12.1121 25.9723 10.4318 23.7154 11.2937ZM9.23156 16.4927L10.6489 18.4658C11.1189 19.12 12.1658 18.7915 12.1658 17.9848V5.47165C12.1658 4.17004 14.0767 4.16796 14.0767 5.47165V14.5394C14.0767 14.9972 14.451 15.3684 14.9127 15.3684H15.271C15.7327 15.3684 16.107 14.9972 16.107 14.5394V12.7258C16.107 11.4242 18.0179 11.4221 18.0179 12.7258V14.5394C18.0179 14.9972 18.3921 15.3684 18.8539 15.3684H19.2123C19.674 15.3684 20.0483 14.9972 20.0483 14.5394V13.4512C20.0483 12.1496 21.9592 12.1476 21.9592 13.4512V14.5394C21.9592 14.9972 22.3334 15.3684 22.7952 15.3684H23.1535C23.6152 15.3684 23.9895 14.9972 23.9895 14.5394C23.9895 13.2377 25.9004 13.2357 25.9004 14.5394V18.8919C25.9004 18.969 25.8915 19.0461 25.8741 19.1211L24.4409 25.2872C24.3375 25.7319 23.9555 26.0424 23.5118 26.0424H14.1962C13.8947 26.0424 13.6077 25.8933 13.4283 25.6436L7.69569 17.664C6.94296 16.6161 8.47914 15.4454 9.23156 16.4927Z" fill="white"/>
</g>
<defs>
<filter id="filter0_d" x="0" y="0" width="33.4085" height="36.5296" filterUnits="userSpaceOnUse" color-interpolation-filters="sRGB">
<feFlood flood-opacity="0" result="BackgroundImageFix"/>
<feColorMatrix in="SourceAlpha" type="matrix" values="0 0 0 0 0 0 0 0 0 0 0 0 0 0 0 0 0 0 127 0"/>
<feOffset dy="3"/>
<feGaussianBlur stdDeviation="2.5"/>
<feColorMatrix type="matrix" values="0 0 0 0 0 0 0 0 0 0 0 0 0 0 0 0 0 0 0.25 0"/>
<feBlend mode="normal" in2="BackgroundImageFix" result="effect1_dropShadow"/>
<feBlend mode="normal" in="SourceGraphic" in2="effect1_dropShadow" result="shape"/>
</filter>
</defs>
</svg>

<svg xmlns="http://www.w3.org/2000/svg" width="34" height="37" fill="none"><g filter="url(#A)"><path d="M23.715 11.294c-1.02-1.283-2.753-1.655-4.173-1a3.45 3.45 0 0 0-2.957-1.017V5.472C16.585 3.557 15.03 2 13.12 2S9.658 3.557 9.658 5.472v8.35c-1.04-.384-2.26-.264-3.244.46-1.534 1.13-1.87 3.282-.76 4.827l5.732 7.98a3.47 3.47 0 0 0 2.811 1.443h9.316c1.61 0 3.008-1.114 3.373-2.684l1.433-6.166c.06-.258.1-.523.1-.788V14.54c0-2.427-2.436-4.108-4.693-3.246zm-14.484 5.2l1.417 1.973c.47.654 1.517.326 1.517-.48V5.472c0-1.302 1.91-1.304 1.91 0v9.068c0 .458.374.83.836.83h.358c.462 0 .836-.37.836-.83v-1.814c0-1.302 1.91-1.304 1.91 0v1.814c0 .458.374.83.836.83h.358c.462 0 .836-.37.836-.83V13.45c0-1.302 1.91-1.304 1.91 0v1.088c0 .458.374.83.836.83h.358c.462 0 .836-.37.836-.83 0-1.302 1.91-1.304 1.91 0v4.352c0 .077-.01.154-.026.23l-1.433 6.166c-.103.445-.485.755-.93.755h-9.316a.95.95 0 0 1-.768-.399l-5.733-7.98c-.753-1.048.783-2.22 1.536-1.17z" fill="#fff"/></g><defs><filter id="A" x="0" y="0" width="33.409" height="36.53" filterUnits="userSpaceOnUse" color-interpolation-filters="sRGB"><feFlood flood-opacity="0" result="A"/><feColorMatrix in="SourceAlpha" values="0 0 0 0 0 0 0 0 0 0 0 0 0 0 0 0 0 0 127 0"/><feOffset dy="3"/><feGaussianBlur stdDeviation="2.5"/><feColorMatrix values="0 0 0 0 0 0 0 0 0 0 0 0 0 0 0 0 0 0 0.25 0"/><feBlend in2="A"/><feBlend in="SourceGraphic"/></filter></defs></svg>
